X:9109
T:Ladies God bless them,The. CJF.202
M:6/8
L:1/8
Q:90
S: C.J.Fox MS, 1829/33, Beverley,E.Yorks.
R:Air
O:England
A:East Yorkshire
B:Kidson Coll.Mitchell Lib.M1805
Z:P J Headford 2000
K:F
"Vivace"(c/A/)|F>GA f>gf|(e>dc)f2c|(df).d (cA).d|\
G3-G2(A/G/)|!(F>GA) (f>g)a|fddd2(e/f/)|gec Ged|c3-c2:||!
c|(f>ef) (g>fe)|f>edc2B|(A>Bc) fcA|AG2z2G|A>GF cAc|\
faghf2g|!afd cde|gf2z2f|
f2ff2f|ha3{(a/g/)}(b/a/g/f/e/d/)|(c>dc) cde|gf2z2||


